X:1
T:Benedic anima mea
T:Benedic anima mea
T:Claudin de Sermisy
C:Claudin de Sermisy
%%score [ 1 2 3 4 ]
L:1/8
Q:1/4=120
M:2/2
K:Bb
V:1 treble nm="Soprano" snm="S"
V:2 treble nm="Alto" snm="A"
V:3 treble-8 nm="Tenor" snm="T"
V:4 bass nm="Bass" snm="B"
V:1
 B8 | B4 A4 | G6 G2 | B4 B4 | c4 A4- | A4 B4 | A6 GF | G4 A4 | z8 | B4 e4 | e2 e2 e3 d/c/ | B4 A4 | %12
w: Be-|ne- dic|a- ni-|ma me-|a Do-||mi- * *|* no:||et o-|* mni- a _ _|_ quae|
 A2 A2 d4 | c4 z2 B2- | B2 B2 B4 | B4 c2 B2- | B2 AG A4 | B8- | B8 | z8 | z2 B4 B2 | e4 d4 | %22
w: in- tra me|sunt no-|* mi- ni|san- cto e-||ius.|_||Be- ne-|dic a-|
 d2 d2 c4 | B4 (B4 | B2) B2 A2 F2 | G2 A4 GF | G2 A2 B3 A/G/ | A4 G4 | B4 c4 | F4 (B4 | B2) B2 B4 | %31
w: ni- ma me-|a Do-|* mi- no et|no- li _ _|_ _ _ _ _|* ob-|li- vi-|sci o-|* mnes re-|
 B4 B2 B2 | G4 A3 B | c2 B4 AG | A2 B4 A2 | B4 z4 | z8 | z2 A2 c4 | c2 c2 d4 | B4 z2 e2- | %40
w: tri- bu- ti-|o- nes _|_ e- * *||ius:||qui pro-|pi- ti- a-|tur o-|
 e2 e2 d2 c2 | c2 c2 d2 d2 | c2 A2 B4 | A4 F2 G2- | G2 A4 B2 | Bcde f2 F2- | F2 B4 B2 | B4 B4 | %48
w: * mni- bus in-|i- qui- ta- ti-|bus tu- *|is, qui sa-||* * * * nat o-|* mnes in-|fir- mi-|
 c4 A4 | G8 | F8- | F8 |] %52
w: ta- tes|tu-|as.|_|
V:2
 F8 | F4 F4 | D6 D2 | G4 G4 | G4 F4 | F2 F4 =E2 | F4 z4 | C4 F4 | F2 F2 F4 | F4 G4- | G4 G4- | %11
w: Be-|ne- dic|a- ni-|ma me-|a Do-|mi- no: _|_|et o-|* mni- a|quae in-|* tra|
 G4 F4 | F8- | F8 | F6 F2 | F2 F2 G4 | F8 | D3 E F2 (G2 | G)FGF/E/ D4 | C6 C2 | F4 F4 | G2 A2 B4 | %22
w: _ me|sunt|_|no- mi-|ni san- cto|e-|* * * ius.|_ _ _ _ _ _|Be- ne-|dic a-|ni- ma me-|
 B4 A2 G2- | G2 F2 G3 F/E/ | D2 B,2 F4 | z4 F4 | E2 F4 ED | C4 B,4 | G,2 B,4 A,2 | B,4 (F4 | %30
w: a Do- *||* mi- no,|et|no- li _ _|_ ob-|li- vi- *|sci o-|
 F2) F2 F4 | G4 F2 F2 | E4 F4 | G4 (F4 | F8) | z2 D2 F4 | F2 F2 G4 | F4 z2 A2- | A2 A2 B2 F2 | %39
w: * mnes re-|tri- bu- ti-|o- nes|e- ius:|_|qui pro-|pi- ti- a-|tur o-|* mni- bus in-|
 F4 G4- | G4 (F4 | F2) F2 F4 | F4 D3 E | F4 z4 | z4 z2 F2 | G4 A4 | B4 G4 | G4 G4 | G2 G2 F4 | %49
w: i- qui-|* ta-|* ti- bus|tu- is _|_|qui|sa- nat|o- mnes|in- fir-|* mi- ta-|
 D4 E4 | C8- | C8 |] %52
w: tes tu-|as.|_|
V:3
 B8 | d4 c4 | B6 B2 | d4 e4 | e4 c3 B | c2 d4 cB | c6 d2 | e4 z2 c2 | d6 d2 | d4 c4 | B8 | e4 c4 | %12
w: Be-|ne- dic|a- ni-|ma me-|a Do- *||* mi-|no: et|o- mni-|a quae|in-|tra me|
 d3 c A2 B2- | B2 A2 B4 | d6 d2 | d2 d2 e4 | c8 | B8 | B6 B2 | e8 | d4 d2 d2 | c4 B2 GA | %22
w: sunt _ _ _|_ _ _|no- mi-|ni san- cto|e-|ius.|Be- ne-|dic|a- ni- ma|me- a Do- *|
 Bcde f2 e2- | e2 d2 e3 d | B2 d2 c4 | c8 | c4 d2 f2- | f2 f2 d4 | e8 | d8 | d6 d2 | d4 d4 | %32
w: ||* mi- no,|_|et no- li|_ ob- li-|vi-|sci|o- mnes|re- tri-|
 B2 B2 c4 | e4 (d4 | d2) cB c4 | B4 z2 A2 | c4 c2 c2 | d4 c2 f2- | f2 f2 B2 d2- | d2 d2 c2 B2- | %40
w: bu- ti- o-|nes e-||ius: qui|pro- pi- ti-|a- tur o-|* mni- bus in-|* i- qui- ta-|
 B2 B2 A4- | A4 B4 | c4 z2 B2 | c4 d4 | z8 | z2 B2 c4 | d4 B4 | e6 e2 | e2 e2 c4 | B4 c2 B2- | %50
w: * ti- bus|_ tu-|is, qui|sa- nat||qui sa-|nat o-|mnes in-|fir- mi- ta-|tes tu- *|
 B2 AG A3 B | A8 |] %52
w: |as.|
V:4
 B,8 | B,4 F,4 | G,6 G,2 | G,4 E,4 | C,4 F,4- | F,4 G,4 | F,8 | z4 F,4 | B,6 B,2 | B,4 z4 | E,8 | %11
w: Be-|ne- dic|a- ni-|ma me-|a Do-|* mi-|no:|et|o- mni-|a|quae|
 E,4 F,4 | D,6 B,,2 | F,4 z4 | B,6 B,2 | B,2 B,2 E,4 | F,8 | B,,3 C, D,2 (E,2 | %18
w: in- tra|me _|sunt|no- mi-|ni san- cto|e-|ius _ _ san-|
 E,)D,E,F, G,A, B,2- | B,2 A,G, A,4 | B,8 | z8 | z8 | z8 | z4 F,4 | E,2 F,4 E,D, | C,2 F,2 B,,4 | %27
w: * * * * cto _ _|_ e- * *|ius.||||et|no- li _ _|_ ob- li-|
 F,4 G,4 | E,3 D, C,4 | B,,2 B,4 B,2 | B,4 B,4 | G,2 G,2 B,4 | E,2 G,2 F,4 | z4 z2 D,2 | %34
w: |vi- * *|sci o- mnes|re- tri-|bu- ti- o-|nes e- ius:|qui|
 F,4 F,2 F,2 | G,3 F, D,2 F,2- | F,2 E,D, E,4 | D,4 z4 | z4 z2 B,2- | B,2 B,2 E,4 | E,4 (F,4 | %41
w: pro- pi- ti-|a- * * *||tur|o-|* mni- bus|in- i-|
 F,2) F,2 D,2 B,,2 | F,4 G,4 | F,4 z2 B,2 | C4 (DCB,A, | G,4 F,4 | B,,4) (E,4 | E,2) E,2 E,2 E,2 | %48
w: * qui- ta- ti-|bus tu-|is, qui|sa- nat _ _ _|_ _|o- mnes|_ in- fir- mi-|
 C,4 F,4 | (G,4 E,4) | F,8- | F,8 |] %52
w: ta- tes|tu- *|as.|_|

